X: 1
T: Dans Fanch
M: C|
L: 1/8
Z: John Chambers <jc@trillian.mit.edu> from Steve Gruverman's version
P: ABCB
K: G
"A"\
|: "^G drone"GB GB A2 A2 | GB GB A2 A2 :|
"B"\
|: G2 AB cd e2 | dc/B/ Ac BA BA |
|  G2 AB cd e2 | dc/B/ Ad G2 G2 :|
"C"\
|: g2 dg fe d2 | g2 dg fe d2 :|
